archdroid-icon-theme/Archdroid-Amber/mimetypes/scalable/text-xml.svg

<?xml version="1.0" encoding="UTF-8" standalone="no"?>
<!-- Created with Inkscape (http://www.inkscape.org/) -->

<svg
   xmlns:dc="http://purl.org/dc/elements/1.1/"
   xmlns:cc="http://creativecommons.org/ns#"
   xmlns:rdf="http://www.w3.org/1999/02/22-rdf-syntax-ns#"
   xmlns:svg="http://www.w3.org/2000/svg"
   xmlns="http://www.w3.org/2000/svg"
   xmlns:sodipodi="http://sodipodi.sourceforge.net/DTD/sodipodi-0.dtd"
   xmlns:inkscape="http://www.inkscape.org/namespaces/inkscape"
   width="48"
   height="48"
   viewBox="0 0 48 48"
   id="svg4160"
   version="1.1"
   inkscape:version="0.91 r13725"
   sodipodi:docname="text-xml.svg">
  <defs
     id="defs4162" />
  <sodipodi:namedview
     id="base"
     pagecolor="#ffffff"
     bordercolor="#666666"
     borderopacity="1.0"
     inkscape:pageopacity="0.0"
     inkscape:pageshadow="2"
     inkscape:zoom="9.953753650868242"
     inkscape:cx="10.59821986955337"
     inkscape:cy="8.87821082037774"
     inkscape:document-units="px"
     inkscape:current-layer="layer1"
     showgrid="false"
     units="px"
     inkscape:window-width="1366"
     inkscape:window-height="713"
     inkscape:window-x="0"
     inkscape:window-y="30"
     inkscape:window-maximized="1"
     inkscape:snap-bbox="true"
     inkscape:bbox-paths="true"
     inkscape:bbox-nodes="true"
     inkscape:snap-bbox-edge-midpoints="false"
     inkscape:snap-page="true" />
  <metadata
     id="metadata4165">
    <rdf:RDF>
      <cc:Work
         rdf:about="">
        <dc:format>image/svg+xml</dc:format>
        <dc:type
           rdf:resource="http://purl.org/dc/dcmitype/StillImage" />
        <dc:title />
      </cc:Work>
    </rdf:RDF>
  </metadata>
  <g
     inkscape:label="Layer 1"
     inkscape:groupmode="layer"
     id="layer1"
     transform="translate(0,-1004.3622)">
    <path
       style="fill:#ff6600;fill-opacity:1"
       d="M 12 4 C 9.789999999999999 4 8.019531249999998 5.789999999999964 8.01953125 8 L 8 40 C 8 42.21000000000004 9.770468749999999 44 11.98046875 44 L 36 44 C 38.21 44 40 42.21000000000004 40 40 L 40 16 L 28 4 L 12 4 z M 26 7 L 37 18 L 26 18 L 26 7 z M 18.591796875 25.08203125 L 20 26.248046875 L 16.021484375 31.037109375 L 20 35.833984375 L 18.591796875 37 L 13.64453125 31.037109375 L 18.591796875 25.08203125 z M 25.318359375 25.08203125 L 27 25.08203125 L 22.681640625 37 L 21 37 L 25.318359375 25.08203125 z M 29.408203125 25.08203125 L 34.35546875 31.044921875 L 29.408203125 37.00390625 L 28 35.837890625 L 31.978515625 31.044921875 L 28 26.25 L 29.408203125 25.08203125 z "
       transform="translate(0,1004.3622)"
       id="path4172" />
  </g>
</svg>

<svg xmlns="http://www.w3.org/2000/svg" viewBox="0 0 48 48"><path d="m12 4c-2.21 0-3.98 1.79-3.98 4l-.02 32c0 2.21 1.77 4 3.98 4h24.02c2.21 0 4-1.79 4-4v-24l-12-12h-16m14 3l11 11h-11v-11m-7.408 18.08l1.408 1.166-3.979 4.789 3.979 4.797-1.408 1.166-4.947-5.963 4.947-5.955m6.727 0h1.682l-4.318 11.918h-1.682l4.318-11.918m4.09 0l4.947 5.963-4.947 5.959-1.408-1.166 3.979-4.793-3.979-4.795 1.408-1.168" fill="#f60"/></svg>
